X:1
T:51.  Send Out Thy Light
T:Charles Gounod  (Abr.)
T:Send Out Thy Light
T:51.  Send Out Thy Light
C:Charles Gounod  (Abr.)
%%score ( 1 2 )
L:1/8
Q:1/4=60
M:4/4
K:F
V:1 treble nm="Piano" snm="Pno."
V:2 treble 
V:1
!ff!"^Adagio molto" F4"^\"Send Out Thy Light\" is one of a number of exceptionally effective anthems composed by Gounod. This celebrated French composer had deep religious  convictions, and wrote a large number of sacred compositions which are  almost aswell known as his famous masterpiece, the opera, \"Faust.\" The anthem is simplified and abbreviated in this edition." F3 F | %1
w: Send out Thy|
 F6 z2 | G4 G3 G | G6 !fermata!z2 |:[M:2/2]!pp!"^Moderato"[Q:1/4=100] A4 A2 A2 | c4 A2 B2 | %6
w: light,|send out Thy|light!|Send out Thy|light and Thy|
 A4 F2 G2 | G4 F2 z2 |"^cres." c4 =B2 c2 | A2 =B2 c2 d2 | ((e2"^dim." G2)) d4 | c6 z2 | %12
w: truth, let them|lead me,|O, let them|bring me to Thy|ho- * ly|hill;|
!p! c4 d2 e2 | f4"^cres." e2 d2 | c4 d2 e2 | g4 f2 z2 |!f! f4 c2 B2 | A2 A2"^dim." A2 cB | G6 G2 | %19
w: Send out Thy|light and Thy|truth, let them|lead me,|O, let them|bring me to Thy _|ho- ly|
 F x F2 F2 G2 | x8 | x8 |"^cres." F4 F2 F2 | F4 F2 z2 |!f! f4 =e2 d2 | c2"^dim." A2 B2 A2 | %26
w: hill, un- to Thy|||lead, let them|lead me;|O, let them|bring me to Thy|
!p! F4 G4 | F6 z2 |"^1."!p! G4"^(omit 2nd time)"!<(! A2!<)! G2 | d4 c2 z2 |"^cres." c4 d2 c2 | %31
w: ho- ly|hill.|Lord, we will|praise Thee,|Lord, we will|
 g4 f2 z2 |!f! g4 c2 z2 |!ff! c2 d2 e2 f2 | e8 | c4 d4 | c2 z2!ff! c3 c | c4 c3 c | c2 z2 c3 c | %39
w: praise Thee,|praise Thee,|praise Thee on the|harp,|O our|God! on the|harp, O our|God! on the|
 c4 c3 c |!ff! g8 :|"^2." F4 F2 F2 | F8 |!pp! F4"^adagio"[Q:1/4=60] F2 F2 | A8- | A2 z2 z4 |] %46
w: harp, O our|God!|Send out Thy|light,|O Lord our|God!|_|
V:2
 x8 | x8 | x8 | x8 |:[M:2/2] x8 | x8 | x8 | x8 | x8 | x8 | x8 | x8 | x8 | x8 | x8 | x8 | x8 | x8 | %18
 x8 | z2 x6 | F4 F4 | F4 F2 G2 | x8 | x8 | x8 | x8 | x8 | x8 | x8 | x8 | x8 | x8 | x8 | x8 | x8 | %35
 x8 | x8 | x8 | x8 | x8 | x8 :| x8 | x8 | x8 | x8 | x8 |] %46

